X:234
T:Athole Highlanders, The
C:Joe Buchanan's Scottish Tome - Page 296.3
I:296 3
Z:Carl Allison
R:Jig
L:1/8
M:6/8
K:A
"A"e3 e>cA | "A"e>cA "E"B>cd | "A"e2 e e>cA | "E"B>cd "A"c>BA | \
"A"e3 e>cA | "A"e>cA "E"B>cd | "A"e>ae "D"f>ed | "E"c>dB "A"A3 :|
"A"A>ce A>ce | "D"A>df A>df | "A"A>ce A>ce | "E"B>cd "A"c>BA | \
"A"A>ce A>ce | "D"A>df A>df | "A"e>ae "D"f>ed | "E"c>dB "A"A3 :|
"A"a>ee e>dc | "A"a>ee e>dc | "A"a>ee e>dc | "E"B>cd "A"c>BA | \
"A"a>ee e>dc | "A"a>ee e>dc | "A"a>ee "D"f>ed | "E"c>dB "A"A3 :|
"A"c>Ac c>Ac | "D"d>Bd d>Bd | "A"c>Ac c>Ac | "E"B>GB B>GB | \
"A"c>Ac c>Ac | "D"d>Bd d>Bd | "A"e>ae "D"f>ed | "E"c>dB "A"A2 :|

